src/assets/icons/NodeTypes/Connector.svg

<svg width="16" height="16" viewBox="0 0 16 16" fill="none" xmlns="http://www.w3.org/2000/svg">
<path fill-rule="evenodd" clip-rule="evenodd" d="M15 4.49994L11 2.18994V3.99994H9.5C8.12 3.99994 7 5.11994 7 6.49994V11.4999C7 12.3279 6.328 12.9999 5.5 12.9999H2V13.9999H5.5C6.88 13.9999 8 12.8799 8 11.4999V6.49994C8 5.67194 8.672 4.99994 9.5 4.99994H11V6.80994L15 4.49994Z" fill="black"/>
</svg>

<svg class="svg" xmlns="http://www.w3.org/2000/svg" width="16" height="16" viewBox="0 0 16 16">
    <path fill="#000" fill-opacity="1" fill-rule="evenodd" stroke="none"
        d="m15 4.5-4-2.31V4H9.5C8.12 4 7 5.12 7 6.5v5c0 .828-.672 1.5-1.5 1.5H2v1h3.5C6.88 14 8 12.88 8 11.5v-5C8 5.672 8.672 5 9.5 5H11v1.81l4-2.31z">
    </path>
</svg>
